X: 17940
T: How Bout Them Bugs
R: hornpipe
M: 4/4
K: Dmajor
DE|:F2FE DB,DE|FdcA ~B2Bc|dedB AFde|dBAF ~E2DE|
F2FE DB,DE|FdcA B2Bc|dedB AFdB|1 AFEF D2DE:|2 AFEF D2FA||
|:B2BA BcdB|AFED ~E2DE|F2FE DB,A,B,|DFED ~E2FA|
B2BA BcdB|AFED ~E2DE|F2FE DB,A,B,|1 DFEF DEFA:|2 DFEF D2z2||

